X:47
T:Ridee 6 temps
R:ridee
C:trad.
A:Bretagne
O:France
M:2/4
L:1/8
Q:1/8=260
K:G
d|dd cB|Ad Gd|dd cB|Ad Gd|dd cB|Ad Gd|dd cB|Ad G2|
|:GG AB|cA dd|cB AG|A2G2:||
